data/styles/clear/style-night/symbols/beach-m.svg

<svg height="24" viewBox="0 0 24 24" width="24"><g fill="none" fill-rule="evenodd"><circle cx="12" cy="12" fill="#fff" opacity=".4" r="12"/><circle cx="12" cy="12" fill="#3d3d36" r="11"/><path d="m6 19h10.7408933v-1.6470574h-10.7408933zm7.740348-13.78834116c-2.9453064-.84658752-5.96196295.92070509-6.92941056 3.97517307l5.00448906 1.43952819-1.2674254 5.0795251h1.1454395l1.191472-4.7715254 5.0044891 1.4387047c.5853786-3.16399731-1.2045145-6.31481815-4.1490537-7.16140566z" fill="#fff" opacity=".6"/></g></svg>

<svg width="24" height="24" viewBox="0 0 24 24">
  <g fill="none" fill-rule="evenodd">
    <circle cx="12" cy="12" r="12" fill="#FFF" opacity=".4"/>
    <circle cx="12" cy="12" r="11" fill="#3D3C36"/>
    <path fill="#FFF" d="M6,19 L16.7408933,19 L16.7408933,17.3529426 L6,17.3529426 L6,19 L6,19 Z M13.740348,5.21165884 C10.7950416,4.36507132 7.77838505,6.13236393 6.81093744,9.18683191 L11.8154265,10.6263601 L10.5480011,15.7058852 L11.6934406,15.7058852 L12.8849126,10.9343598 L17.8894017,12.3730645 C18.4747803,9.20906719 16.6848872,6.05824635 13.740348,5.21165884 L13.740348,5.21165884 Z" opacity=".6"/>
  </g>
</svg>
